X:3
T:Ryan's
M:12/8
S:L Nugent's Two-For-Two, Track #2
R:Slide
O:Ireland
Z:anscribed by Ed Wosika
K:ADor
|: ABA Azg ede gdB| G2G BAG BcA BGE | ABA Azg edB def|  g2e dBG GAA A2:|
|: b| a2a age a2a age| ~g2g gdB GAB deg| a2a age edB def| g2d BAG ABA A2:|
% Written by ABC2Win  2.2.124 BETA on 1/30/2011
